X:1
T:Title
%%score { ( 1 3 4 ) | ( 2 5 ) }
L:1/8
M:4/4
K:Ab
V:1 treble nm="Grand Piano"
V:3 treble 
V:4 treble 
V:2 bass 
V:5 bass 
V:1
 z4 z2[Q:1/4=90] [CE]2 | [Ec]3 [CA] BAFA | [DF]2 [CE]4 [CE]2 | B3 A GdF[Fd] |[M:3/4] [Ec]6 | %5
[M:1/4] [CE]2 |[M:4/4] [Ec]3 [CA] BAFA | [DF]2 [CE]4 [CF]2 | [EG]3 [EA] [=DB][DF][DF][DB] | %9
[M:3/4] E6 |[M:1/4] E2 |[M:4/4] [Gd]3 [Gd] [Gd]BB_c | [=D_c]2 [E=c]4 [CE]2 | B3 A G[Fd][DF][Fd] | %14
[M:3/4] [Ec]6 |[M:1/4] [Ec]2 |[M:4/4] [_Ge]3 [Gc] [GA][GA][GB][GA] | [FA]2 [DF]4 [Fd]>[Fd] | %18
 .c2 z d .c2 z c |[M:3/4] [CA]6 |[M:1/4] [CA]2 |[M:4/4] G2 B4 c2 | [CA]2 [Ec]4 [CA]2 | %23
 [DF]3 [DG] [=DA][DF][Dc][D_c] | B6 F>E | [CE]2 [Ec]2 [_Ge]3 [Gc] | [FB]2 [DF]2- [DF][Fd][Ec][FB] | %27
[M:9/8] A>EE- E2 c c3/2B3/2 |[M:3/4] [CA]6 |] %29
V:2
 z4 z2 [A,,A,]2 | [A,,A,]3 [A,,A,] [D,F,D][D,F,D][D,A,D][D,F,D] | [A,,A,]2 [A,,A,]4 [A,,A,]2 | %3
 [E,G,D]3 [E,A,D] [E,B,D][E,B,D][E,G,D][E,G,] |[M:3/4] [A,,A,]6 |[M:1/4] [A,,A,]2 | %6
[M:4/4] [A,,E,]3 [A,,A,] [D,F,D][D,F,D][D,A,D][D,F,D] | [A,,A,]2 [A,,A,]4 [A,,A,]2 | %8
 [B,,G,]3 [B,,G,] [B,,F,][B,,A,][B,,A,][B,,A,] |[M:3/4] [E,G,]6 |[M:1/4] [E,G,]2 | %11
[M:4/4] [E,B,]3 [E,B,] [E,B,][E,G,D][E,G,D][E,G,=D] | [A,,A,]2 [A,,A,]4 [A,,A,]2 | %13
 [E,G,D]3 [E,A,D] [E,B,D][E,B,][E,G,][E,G,] |[M:3/4] [A,,A,]6 |[M:1/4] [A,,A,]2 | %16
[M:4/4] [C,A,]3 [A,,A,] [A,,A,][A,,A,][C,A,][C,A,] | [D,A,]2 [B,,B,]4 [B,,B,]>[B,,B,] | %18
 .[A,E]2 z2 .[A,E]2 z2 |[M:3/4] [A,,A,]6 |[M:1/4] [A,,A,]2 |[M:4/4] [E,B,D]2 [E,G,D]4 [E,G,E]2 | %22
 [A,,A,]2 [A,,A,]4 [A,,A,]2 | [D,A,]3 [D,G,] [B,,F,][B,,F,][B,,A,][B,,A,] | %24
 [E,G,D]6 [E,G,D]>[E,G,D] | [A,,A,]2 [A,,A,]2 [C,A,]3 [C,A,] | %26
 [D,A,]2 [D,A,]2- [D,A,][B,,B,][C,=A,][D,B,] | %27
[M:9/8] [E,CE]>[E,A,C][E,A,C]- [E,A,C]2 [E,A,E] [E,A,E]3/2[E,G,D]3/2 |[M:3/4] [A,,E,]6 |] %29
V:3
 x8 | x8 | x8 | x8 |[M:3/4] x6 |[M:1/4] x2 |[M:4/4] x8 | x8 | x8 |[M:3/4] x6 |[M:1/4] x2 | %11
[M:4/4] x8 | x8 | x8 |[M:3/4] x6 |[M:1/4] x2 |[M:4/4] x8 | x8 | z .B3 z .B3 |[M:3/4] x6 | %20
[M:1/4] x2 |[M:4/4] x8 | x8 | x8 | x8 | x8 | x8 |[M:9/8] x9 |[M:3/4] x6 |] %29
V:4
 x8 | x8 | x8 | x8 |[M:3/4] x6 |[M:1/4] x2 |[M:4/4] x8 | x8 | x8 |[M:3/4] x6 |[M:1/4] x2 | %11
[M:4/4] x8 | x8 | x8 |[M:3/4] x6 |[M:1/4] x2 |[M:4/4] x8 | x8 | z2 E,2 z2 E,2 |[M:3/4] x6 | %20
[M:1/4] x2 |[M:4/4] x8 | x8 | x8 | x8 | x8 | x8 |[M:9/8] x9 |[M:3/4] x6 |] %29
V:5
 x8 | x8 | x8 | x8 |[M:3/4] x6 |[M:1/4] x2 |[M:4/4] x8 | x8 | x8 |[M:3/4] x6 |[M:1/4] x2 | %11
[M:4/4] x8 | x8 | x8 |[M:3/4] x6 |[M:1/4] x2 |[M:4/4] x8 | x8 | %18
 E,-[E,G,-D-][G,D][G,F] E,-[E,G,-D-][G,D][G,E] |[M:3/4] x6 |[M:1/4] x2 |[M:4/4] x8 | x8 | x8 | x8 | %25
 x8 | x8 |[M:9/8] x9 |[M:3/4] x6 |] %29

